project/img/contact-icon-1.svg

<svg width="14" height="19" viewBox="0 0 14 19" fill="none" xmlns="http://www.w3.org/2000/svg">
<path d="M6.30737 17.9438C5.74487 17.1235 5.10034 16.1978 4.37378 15.1665C3.67065 14.1353 3.16675 13.4087 2.86206 12.9868C2.55737 12.5649 2.20581 12.0493 1.80737 11.4399C1.40894 10.8071 1.1394 10.3618 0.998779 10.104C0.881592 9.84619 0.740967 9.51807 0.576904 9.11963C0.436279 8.72119 0.342529 8.38135 0.295654 8.1001C0.272217 7.79541 0.260498 7.44385 0.260498 7.04541C0.260498 5.17041 0.916748 3.57666 2.22925 2.26416C3.54175 0.95166 5.1355 0.29541 7.0105 0.29541C8.8855 0.29541 10.4792 0.95166 11.7917 2.26416C13.1042 3.57666 13.7605 5.17041 13.7605 7.04541C13.7605 7.44385 13.7371 7.79541 13.6902 8.1001C13.6667 8.38135 13.573 8.72119 13.4089 9.11963C13.2683 9.51807 13.1277 9.84619 12.9871 10.104C12.8699 10.3618 12.6121 10.8071 12.2136 11.4399C11.8152 12.0493 11.4636 12.5649 11.1589 12.9868C10.8542 13.4087 10.3386 14.1353 9.61206 15.1665C8.90894 16.1978 8.27612 17.1235 7.71362 17.9438C7.54956 18.1782 7.31519 18.2954 7.0105 18.2954C6.70581 18.2954 6.47144 18.1782 6.30737 17.9438ZM5.00659 9.04932C5.56909 9.58838 6.23706 9.85791 7.0105 9.85791C7.78394 9.85791 8.44019 9.58838 8.97925 9.04932C9.54175 8.48682 9.823 7.81885 9.823 7.04541C9.823 6.27197 9.54175 5.61572 8.97925 5.07666C8.44019 4.51416 7.78394 4.23291 7.0105 4.23291C6.23706 4.23291 5.56909 4.51416 5.00659 5.07666C4.46753 5.61572 4.198 6.27197 4.198 7.04541C4.198 7.81885 4.46753 8.48682 5.00659 9.04932Z" fill="white"/>
</svg>

<svg width="14" height="19" fill="none" xmlns="http://www.w3.org/2000/svg"><path d="M6.307 17.944a270.13 270.13 0 00-1.933-2.777 113.254 113.254 0 00-1.512-2.18 41.202 41.202 0 01-1.055-1.547A29.356 29.356 0 011 10.104a30.724 30.724 0 01-.422-.984A6.248 6.248 0 01.296 8.1 13.927 13.927 0 01.26 7.045c0-1.875.657-3.468 1.97-4.78C3.541.951 5.135.294 7.01.294c1.876 0 3.47.657 4.782 1.97 1.312 1.312 1.969 2.905 1.969 4.78 0 .399-.024.75-.07 1.055-.024.281-.118.621-.282 1.02-.14.398-.281.726-.422.984-.117.258-.375.703-.773 1.336a41.14 41.14 0 01-1.055 1.547c-.305.422-.82 1.148-1.547 2.18a1261.67 1261.67 0 01-1.898 2.777c-.164.234-.399.351-.704.351-.304 0-.539-.117-.703-.351zm-1.3-8.895c.562.54 1.23.809 2.004.809.773 0 1.43-.27 1.968-.809.563-.562.844-1.23.844-2.004a2.62 2.62 0 00-.844-1.968 2.624 2.624 0 00-1.968-.844c-.774 0-1.442.281-2.004.844a2.68 2.68 0 00-.809 1.968c0 .774.27 1.442.809 2.004z" fill="#fff"/></svg>
